!!!!SEGMENT: GDC-1c-Sam-violin.krn
!!!COM: Chopin, Fryderyk
!!!PTL: CHOPIN et FRANCHOMME. | Duo sur Robert le diable pour Piano et Violon.
!!!OTL: GRAND DUO concertant
!!!OPS: Op. 15
!!!PPR: M. Schlesinger
!!!PPP: Paris
!!!AGN: Concertant
!!!NIFC-rismID: 1001013637
!!!NIFC-shelfmark: PL-Wbfc 4100/n
!!!OMD: [quarter] = 12.
**kern	**dynam
*I"DUO.	*
*I'V-no	*
*clefG2	*
*k[f#c#g#d#]	*
*M3/4	*
=1	=1
!LO:TX:a:t=P:"16" pod pauzą:problem	!
2.r	.
=2	=2
2.r	.
=3	=3
2.r	.
=4	=4
2.r	.
=5	=5
2.r	.
=6	=6
2.r	.
=7	=7
2.r	.
=8	=8
2.r	.
=9	=9
2.r	.
=10	=10
2.r	.
=11	=11
2.r	.
=12	=12
2.r	.
=13	=13
2.r	.
=14	=14
2.r	.
=15	=15
2.r	.
=16	=16
2.r	.
=17	=17
*^	*
*clefG2	*	*
*cue	*	*
!LO:TX:a:t=Pfte.	!	!
4f#	2.re	.
8g#	.	.
4g#	.	.
8a#X	.	.
=18	=18	=18
8bL	2.r	.
8b	.	.
8.ccn	.	.
16bJk	.	.
(<16f#LL	.	.
64g#LL	.	.
64f#	.	.
64e#X	.	.
64f#JJJJ	.	.
16.dd#LL	.	.
32ccJJk)	.	.
*Xcue	*	*
*v	*v	*
=19	=19
!LO:TX:b:i:t=dolce&colon;	!
(>4b	.
2dd#)	.
=20	=20
2.r	.
!LO:TX:a:B:t=1	!
.	.
.	.
=21	=21
(>4dd#	<
2ff#)	[
=22	=22
.	.
!LO:TX:a:B:t=1	!
!LO:N:vis=1	!
2.r	.
=23	=23
2.r	.
=24	=24
2.r	.
=25	=25
2.r	.
=26	=26
2.r	.
=27	=27
2.r	.
=28	=28
2.r	.
=29	=29
*^	*
*cue	*	*
*clefG2	*	*
!LO:TX:a:t=Piano.	!	!
2bT	2.re	.
*Xtuplet	*	*
*rscale:4	*	*
40a#XL	.	.
40b	.	.
40cc#	.	.
40dd#	.	.
40ee	.	.
40ff#	.	.
40gg#	.	.
40aa	.	.
40bb	.	.
40ccc#J	.	.
*rscale:1	*	*
=30	=30	=30
8ddd#/	2.re	.
8rff	.	.
4rff	.	.
4rff	.	.
*Xcue	*	*
*v	*v	*
!!LO:LB:g=original
=31	=31
!!!OMD: Andante [quarter]=80.
(>2ee	.
8gg#)	.
8r	.
=32	=32
(>2b	.
8ee)	.
8r	.
=33	=33
2g#	.
4g#	.
=34	=34
(<4b/	.
4a	.
4g#)	.
=35	=35
8qg#/	.
(<4f#	.
4e	.
4f#)	.
=36	=36
(>4.a#X	>
16bLL	.
16cc#JJ	]
8b)	.
8r	.
=37	=37
(>8bL	.
8eeJ)	.
(>4.ee	.
8dd#)	.
=38	=38
(>4dd#	.
4cc#)	.
8r	<
8cc#	.
=39	=39
(>8cc#L	.
8ff#J)	.
(>4.ff#	.
8ee)	.
=40	=40
!LO:TX:b:i:t=a piacere.	!
(>2dd#	.
16qqee/LL	.
16qqdd#/	.
16qqff#/	.
16qqee/	.
16qqdd#/	.
16qqee/JJ	.
8cc#L	.
8ff#J)	.
!!LO:LB:g=original
=41	=41
4b;>	.
4r	.
4r	.
=42	=42
2.r	.
!LO:TX:a:B:t=1	!
.	.
.	.
=43	=43
4r	.
8r	.
(>8bL	.
8ee	.
8bJ)	.
=44	=44
(>4.b	.
16dd#LL	.
16cc#JJ)	.
(>8b\L	.
8a'>J)	.
=45	=45
(>8b\L	.
8aJ)	.
(>4g#	.
8r	.
8b'>)	.
=46	=46
(>4.b	.
16ff#LL	.
16dd#JJ)	.
(>8b\L	.
8aJ)	.
=47	=47
(<8.bL	.
16aJk	.
8g#)	.
8r	.
(<8.g#L	.
16a#XJk)	.
=48	=48
2b	<
(>8.cc#L	.
16dd#Jk)	[
=49	=49
(>4ee	<
4.ggn	[>
8a#X)	]
!!LO:LB:g=original
=50	=50
2b	.
4r	.
=51	=51
4r	.
4r	.
4b	.
=52	=52
(>4b	>
8a/)	]
8r	.
4ee	.
=53	=53
(>4ee	>
8dd#)	]
8r	.
8.bL	.
16bJk	.
=54	=54
(>4b\	>
4a)	]
(>8.ff#L	.
16eeJk)	.
=55	=55
(>4ee	>
4dd#)	]
4b	.
=56	=56
2ee	f
4gn	.
=57	=57
(<[<4a	.
8.aL]	.
32bLL	.
32aJJJ	.
8gnL	.
8aJ)	.
=58	=58
4.b	.
8r	.
4r	.
=59	=59
2.r	.
!LO:TX:a:B:t=1	!
.	.
.	.
!!LO:LB:g=original
=60	=60
!LO:TX:b:i:t=dolce.	!
(>4.b	.
8eeL	.
8dd#	.
8ff#J)	.
=61	=61
2b	.
4r	.
=62	=62
4.b	.
(>8ee^<L	.
8dd#)	.
(>8ff#^<J	.
=63	=63
8.bL	.
16cc#Jk	.
4b)	.
8r	p
8a^</	.
=64	=64
(<8.aL	.
16g#K)	.
(<8.a	.
16g#K)	.
(<8.a	.
16g#Jk)	.
=65	=65
2cc#	.
8r	.
8cc#	.
=66	=66
(>8.cc#L	<
16b#XK)	.
(>8.cc#	.
16b#K)	.
(>8.cc#	.
16b#Jk)	.
=67	=67
2ee	.
8r	.
8ee	.
=68	=68
(>8.eeL	.
16dd#K)	.
(>8.ee	.
16dd#K)	.
(>8.ee	.
16dd#Jk)	.
!!LO:LB:g=original
=69	=69
(>8bbL	>
8aa#X	.
8aan	.
8gg#)	.
8ff#	.
8eeJ	.
=70	=70
(>8dd#L	.
8cc#	.
8b	]
8aJ)	.
*tuplet	*
!LO:TUP:b	!
!LO:TX:a:t=P:note-head-side tuplet number:problem	!
(<12aL	.
12g#	.
12f#J)	.
=71	=71
4.b	<
8ee	[
!LO:TUP:a	!
!LO:TX:a:t=P:note-head-side tuplet number:problem	!
(>12eeL	.
12dd#	.
12cc#J'>)	.
=72	=72
(<4.ccn	.
8aL	.
8f#	.
8d#XJ)	.
!LO:TX:b:i:t=poco animato.	!
=73	=73
8d#	.
8r	.
4r	.
4r	.
=74	=74
2.r	.
!LO:TX:a:B:t=1	!
.	.
.	.
=75	=75
[>4gg#	.
8gg#L]	f
!LO:TX:b:i:t=appiassionato.	!
8ff#	.
8dd#	.
8cc#J	.
=76	=76
[>8cc#L	.
(>32cc#LL]	.
32b#X	.
32cc#	.
32dd#JJJ	.
8b#L)	.
(>8aa	.
8gg#	.
8dd#J)	.
!!LO:LB:g=original
=77	=77
!LO:TX:t=P:kreska nad nutą - raczej zabrudzenie:problem	!
4ee	.
4r	.
4r	.
=78	=78
2.r	.
!LO:TX:a:B:t=1	!
.	.
.	.
=79	=79
(>4.ff#	.
8ee	.
16qqff#/LL	.
16qqee/JJ	.
16dd#XLL	.
16ee	.
16ccc#	.
16bbJJ)	.
=80	=80
(>16bbLL	.
16aa#X)	.
(>16aa#	.
16ggnJJ)	.
(>16ggLL	.
16ff#)	.
(>16ff#	.
16ee#XJJ)	.
(>16ee#LL	.
16ff#)	.
(>16ff#	.
16cc#JJ)	.
=81	=81
4ddn	.
4B	.
4dn	.
=82	=82
4f#	.
4b	.
4ddn	.
=83	=83
[>4ee#X	.
8ee#L]	.
(>16ff#L	.
16ee#JJ	.
16dd##XLL	.
16ee#	.
16bb	.
16aaJJ)	.
!!LO:LB:g=original
=84	=84
(>16aaLL	.
16gg#)	.
(>16gg#	.
16ff#JJ)	.
(>16ff#LL	.
16ee#X)	.
(>16ee#	.
16ddnJJ)	.
(>16ddLL	.
16cc#)	.
(>16cc#	.
16bJJ)	.
=85	=85
4a	.
4f#	.
4a	.
=86	=86
4cc#	.
4ff#	.
4aa	.
=87	=87
!	!LO:DY:rj
2ff# 2dddn	ff
(>4aa 4fff#	.
=88	=88
4aa 4fff#	.
4ff# 4aa)	.
4f# 4b#X	.
=89	=89
4e#X 4cc#	.
4r	.
4r	.
*kcancel	*
==90	==90
*k[f#c#g#]	*
!LO:TX:b:i:t=dolcissimo.	!
4r	.
8r	.
(>8aaL	.
8dddn	.
8aaJ	.
=91	=91
8.gg#L	.
32bbLL	.
32aaJJJ	.
4gg#\)	.
4r	.
!!LO:LB:g=original
=92	=92
4r	.
8r	.
(>8gg#L	.
8ccc#	.
8gg#J	.
=93	=93
8.ff#L	.
32aaLL	.
32gg#JJJ	.
4ff#)	.
4r	.
=94	=94
4r	.
8r	.
(>8ff#L	.
8bb	.
8ff#J)	.
=95	=95
8qff#/	.
(>2.ee#Xt>	.
16qqdd#X/LL	.
16qqee#/JJ	.
=96	=96
4ff#)	.
4gg#	.
4aa	.
=97	=97
(>8.gg#L	.
16ccc#Jk)	.
4cc#\	.
(<4c#	.
=98	=98
8.dL)	.
!LO:TX:b:i:t=leggiero.	!
16f#Jk	.
16a'>LL	.
16cc#'>	.
16dd'>	.
16ee#X'>JJ	.
16ff#'>LL	.
16aa'>	.
16ddd'>	.
16aa'>JJ	.
!!LO:LB:g=original
=99	=99
(>16ccc#LL	.
16bbM>	.
16aa#X	.
16bbJJ	.
16ccc#LL)	.
16bb	.
(>16ddd	.
16bbJJ	.
16aanLL	.
16gg#	.
16bb	.
16gg#JJ	.
=100	=100
!LO:TX:t=P:mixed beam:problem	!
16ff#\LL	.
16ee#X\)	.
16c#'</	.
16e#X'</JJ	.
16g#'<LL>	.
16b#X'<	.
16cc#'<	.
16dd#X'<JJ	.
16ee#'>LL	.
16gg#'>	.
16ccc#'>	.
16gg#'>JJ	.
=101	=101
(>16bbnLL	.
16aaM>	.
16gg#	.
16aaJJ	.
16bbLL	.
16aa)	.
(>16ccc#	.
16aaJJ	.
16gg#LL	.
16ff#	.
16aa	.
!LO:TX:t=P:łuk wygląda jakby kończył się na 16ff#:problem	!
16ff#JJ	.
!!LO:LB:g=original
=102	=102
!LO:TX:t=P:mixed beam:problem	!
16ee\LL	.
16dd\)	.
16B'</	.
16d'</JJ	.
16f#'<LL	.
16a#X'<	.
16b'<	.
16cc#'<JJ	.
16dd'>LL	.
16ff#'>	.
16bb'>	.
16ff#'>JJ	.
=103	=103
(>16aaLL	.
16gg#	.
16ff##X	.
16gg#JJ	.
16aaLL)	.
(>16gg#	.
16ccc#	.
16bbJJ	.
16gg#LL	.
16ee#X	.
16cc#)	.
16bJJ	.
=104	=104
(<16g#LL	.
16a	.
16f#)	.
16a'<JJ	.
16cc#'>LL	.
16ee#X'>	.
16ff#'>	.
16gg#'>JJ	.
16aa'>LL	.
16aa#X'>	.
16bb'>	.
16bb#X'>JJ	.
=105	=105
!	!LO:DY:rj
[>2.ccc#	f
=106	=106
2ccc#]	.
(>8.aaL	.
16bbJk)	.
!!LO:LB:g=original
=107	=107
[>2.ccc#	.
=108	=108
(>2ccc#]	.
!	!LO:DY:rj
8.cc#L	p
16dd#XJk)	.
=109	=109
[>2.ee	.
=110	=110
(>2ee]	.
8.ccnL	.
16ddnJk)	.
=111	=111
(>2.ee	.
=112	=112
16aaLL	f
16ee)	.
16ccn'>	.
16a'>JJ	.
16e'<LL	.
16cc'<	.
16a'<	.
16e'<JJ	.
!	!LO:DY:a
(<8.cnL	f
16dJk)	.
=113	=113
[<2.e	.
=114	=114
2.e_<	.
=115	=115
2.e_<	.
=116	=116
2.e_<	.
==117	==117
*M6/8	*
!!!OMD: All|t|t|o. [quarter] = 100.
8e]	.
8r	.
8r	.
4r	.
8r	.
=118	=118
2.r	.
!LO:TX:a:B:t=1	!
.	.
.	.
!!LO:PB:g=original
=119	=119
4r	.
8r	.
4.ee^^>	f
=120	=120
4ee^^>	.
8r	.
4ee	.
8r	.
=121	=121
8ee	.
8r	.
(>8ee	.
4aa)	.
8gg#	.
=122	=122
4aa	.
(>8ee	.
4aa)	.
8gg#	.
=123	=123
4aa	.
(>8ee	.
4aa)	.
8gg#	.
=124	=124
8ff#'>L	.
8gg#'>	.
8aa'>J	.
(>4.bb	f
=125	=125
4ee)	.
(>8ee	<
4ddd)	[
8bb	.
=126	=126
4aa#X	.
(>8ff#	.
4fff#	.
8eee)	.
!!LO:LB:g=original
=127	=127
8eeeL	.
8ddd	.
8ccc#J	.
8ccc#L	.
8bb	.
8aaJ	.
=128	=128
4gg#	.
(>8gg#	.
8qbb/	.
8aa'>L)	.
8gg#'>	.
8aa'>J	.
=129	=129
(>8bb	.
8r	.
8bb)	.
!	!LO:DY:rj
4eee	f
8r	.
=130	=130
4r	.
8bb	.
4fff#	.
8r	.
=131	=131
4r	.
!	!LO:DY:rj
(>8b	p
4ee)	.
8r	.
=132	=132
4r	.
8b	.
4ff#	.
8r	.
=133	=133
8e/	.
8r	.
8r	.
8G#/ 8e/	.
8r	.
8r	.
=134	=134
8c# 8e	.
8r	.
8r	.
8c# 8e	.
8r	.
8r	.
!!LO:LB:g=original
=135	=135
8B 8d#X	.
8r	.
8r	.
8B 8d#	.
8r	.
8r	.
=136	=136
8A 8d#X	.
8r	.
8r	.
8A 8d#	.
8r	.
8r	.
=137	=137
8G# 8e	.
8r	.
8r	.
8G# 8e	.
8r	.
8r	.
=138	=138
8A#X 8f#	.
8r	.
8r	.
8A# 8f#	.
8r	.
8r	.
=139	=139
8B 8g#	.
8r	.
8r	.
8B 8g#	.
8r	.
8r	.
=140	=140
8An 8f#	.
8r	.
8r	.
8A 8f#	.
8r	.
8r	.
!!LO:LB:g=original
=141	=141
8G# 8e	.
8r	.
8r	.
!LO:TX:a:i:t=arco	!
[>4.ee	f
=142	=142
4.ee]	>
4ccn	.
8ddn	]
=143	=143
8ee	.
8r	.
8r	.
[>4.ee	f
=144	=144
(>4.ee]	>
4ccn	.
8dd	]
=145	=145
4ee)	.
8r	.
!	!LO:DY:rj
4ee	f
8r	.
=146	=146
4ee	.
8r	.
4ee	.
8r	.
=147	=147
8ee	.
8r	.
(>8ee	.
4aa)	.
8gg#	.
=148	=148
4aa	.
(>8ee	.
4aa)	.
8gg#	.
=149	=149
4aa	.
(>8ee	.
4aa)	.
8gg#	.
!!LO:LB:g=original
=150	=150
(>8ff#'>L	.
8gg#'>	.
8aa'>J)	.
!	!LO:DY:rj
(>4.bb	f
=151	=151
4ee)	.
8r	.
(>8ee	.
8ddd)	.
(>8bb	.
=152	=152
4aa#X)	.
(>8ff#	.
4fff#)	.
[>8eee^<	.
=153	=153
8eeeL]	.
8ccc#'>	.
!LO:TX:t=P:diminuendolike accent:problem	!
[>8ddd^<J	.
8dddL]	.
8bb#X	.
[>8ccc#J	.
=154	=154
8ccc#L]	.
8aa#X'>	.
!LO:TX:t=P:diminuendolike accent:problem	!
8bb^<J	.
8bbL	.
8aan	.
8ff#'>J	.
=155	=155
[>2.ee	.
=156	=156
4ee]	.
(>8ff#	.
8eeL	.
8dd	.
8bJ)	.
=157	=157
8a/	.
8r	.
8r	.
4r	.
8r	.
!!LO:LB:g=original
=158	=158
2.r	.
!LO:TX:a:B:t=1	!
.	.
.	.
=159	=159
16d/ 16f#/	.
16r	.
16B'<LL	.
16d'<	.
16f#'<	.
16b'<JJ	.
8dd'>	.
8r	.
[>8ff#	>
=160	=160
(>8ff#L]	]
16eeL)	.
16dd#X	.
16ff#	.
16eeJJ	.
(>8eeL	.
16bL)	.
16cc#	.
16ddn	.
16eeJJ	.
=161	=161
8cc#\	.
8r	.
8r	.
4r	.
8r	.
=162	=162
2.r	.
!LO:TX:a:B:t=1	!
.	.
.	.
=163	=163
8f#L	.
8qf#/	.
8b	.
8qb/	<
8ddJ	.
8qdd/	.
8ff#\L	.
8qff#/	.
8bb	.
8qbb/	.
!LO:TX:t=P:brak początku ligatury:problem	!
[>8dddJ	[[
!!LO:LB:g=original
=164	=164
!	!LO:DY:rj
16dddLL]	f
16ccc#	.
16bb	.
16aa	.
16gg#	.
16ff#JJ	.
(>8ff#L	.
16eeL	.
16dd#X	.
16ee)	.
16ddnJJ	.
=165	=165
(>16cc#LL	<
16ee	.
16gg#	.
16aa	.
16ccc#	[
16bbJJ)	.
(>8.aaL	>
16gg#L	.
16ee	.
16ddJJ)	]
=166	=166
(>16cc#LL	<
16ee)	.
16aa	.
16ccc#	.
16bb	.
16aaJJ	[
(>16aaLL	>
16gg#	.
16bb	.
16gg#	.
16ee	.
16ddJJ)	]
=167	=167
(>16cc#LL	.
16ee	.
16aa)	.
16ccc#J	.
8cc#'>^<J	.
(>16cc#LL	.
16ee	.
16aa	.
16ccc#J)	.
8cc#'>^<J	.
!!LO:LB:g=original
=168	=168
(>16ccnLL	.
16ee	.
16aa	.
16cccnJ)	.
8cc'>^<J	.
(>16ccLL	.
16ee	.
16aa	.
16cccJ)	.
8cc'>^<J	.
==169	==169
*k[b-]	*
!LO:TX:b:i:t=dolce	!
(<2.aat>	.
16qqgg/LL	.
16qqaa/JJ)	.
=170	=170
(>8aaL	.
16bb-L)	.
16gg'>	.
(>16ee	.
16ggJJ)	.
(>8ddL	.
16ccL)	.
16ee	.
16gg'>	.
16ccc'>JJ	.
=171	=171
(>2.aat>	.
16qqgg/LL	.
16qqaa/JJ	.
=172	=172
8bb-L)	.
8dddJ	.
4c	.
16cc'>LL	.
16ee'>	.
16gg'>	.
16ccc'>JJ	.
=173	=173
8aa	.
8r	.
8r	.
(>4.aa	pp
!!LO:LB:g=original
=174	=174
4.fff	.
4.ff	.
=175	=175
4.fff	.
4.dd)	.
=176	=176
(>[>4.bb-	.
8bb-L]	.
8aa	.
8aa-XJ)	.
=177	=177
8qaa-X/	.
!LO:TX:t=P:bez bemola nad trylem:problem	!
(<2.ggt>	.
16qqff/LL	.
16qqgg/JJ)	.
=178	=178
(>8ggL	.
16bb-L	.
16aa-X	.
16ff)	.
16dd'>JJ	.
(>8ccL	.
16b-L)	.
16dd'>	.
16ff'>	.
16bb-'>JJ	.
=179	=179
(>2.ggT>	.
16qqff/LL	.
16qqgg/JJ	.
=180	=180
8aa-XL	.
8cccJ)	.
[<8B-^>	.
(<16B-LL>]	.
16a-X)	.
16b-'<	.
16dd'<	.
16ff'<	.
16bb-'<JJ	.
!!LO:LB:g=original
=181	=181
8gg	.
8r	.
8r	.
16e-X'<^<LL>	.
16g'<	.
!LO:TX:b:i:t=con fuoco.	!
16b-'<	.
16dd'<	.
16ee-X'<	.
16gg'<JJ	.
=182	=182
4ff	.
8r	.
(<16dLL	.
16f)	.
16g'<	.
16bn'<	.
16dd'<	.
16ff'<JJ	.
=183	=183
4ee-X	.
8r	.
(>16ccLL	.
16ee-)	.
16gg'>	.
16bbn'>	.
16ccc'>	.
16gg'>JJ	.
=184	=184
!	!LO:DY:rj
(>4.eee-X	ff
4.ff#X)	.
=185	=185
4gg	.
(>8dd	.
4gg)	.
(>8ff#X	.
=186	=186
4gg)	.
(>8dd	.
4gg	.
8ff#X)	.
!!LO:LB:g=original
=187	=187
*^	*
!LO:TX:b:t=Piano	!	!
4gg\	4ryy	.
*clefG2	*	*
*cue	*	*
8dd	8rg	.
!LO:TX:b:i:t=ritard.	!	!
4gg	4rg	.
8ff#X	8rg	.
=188	=188	=188
4gg	2.rg	.
8dd	.	.
4gg	.	.
8ff#X	.	.
*v	*v	*
==189	==189
!!!OMD: Andante
*k[f#c#]	*
*^	*
!LO:TX:b:i:t=Andante.	!	!
4.bb	2.rg	.
4bb	.	.
8aa#X	.	.
*Xcue	*	*
*v	*v	*
=190	=190
2.r	.
=191	=191
2.r	.
=192	=192
2.r	.
=193	=193
2.r	.
=194	=194
2.r	.
=195	=195
4r	.
8r	.
4r	.
!LO:TX:b:i:t=dol.	!
!LO:TX:a:i:t=con sentimento.	!
8f#	.
=196	=196
(>[>4.b	.
4b]	.
8a#X/)	.
=197	=197
(>[>4.cc#	.
4cc#]	.
8b)	.
=198	=198
(>4ee	.
8dd)	.
(>8ddL	.
8cc#)	.
(>8bJ	.
=199	=199
4ee	.
8cc#)	.
(</[<4.a	.
!!LO:LB:g=original
=200	=200
4a]	.
8b/)	.
(<4g	.
8a)	.
=201	=201
!LO:N:vis=16	!
8f#	.
16r	.
16f#'<LL	<
16a'<	.
16dd'<JJ	[
!	!LO:DY:rj
[>4.ff#	>f
=202	=202
4ff#]	]
(>8f#	.
4dd	.
8cc#)	.
=203	=203
4.b	.
4r	.
8r	.
=204	=204
2.r	.
=205	=205
2.r	.
=206	=206
[<4.d	.
8dL]	.
(<8B	.
8gJ)	.
=207	=207
[<4.e-X	.
8e-L]	.
(<8cn	.
8gJ)	.
=208	=208
4.d	.
4r	.
8r	.
=209	=209
2.r	.
!LO:TX:a:B:t=1	!
.	.
.	.
!!LO:LB:g=original
=210	=210
[<4.d	.
(<16dLL]	.
16c#X	.
16d	.
16B	.
16G	.
16gJJ)	.
=211	=211
4e-X	.
[<8cn	.
16cLL]	.
(<16B	.
16c	.
16e-	.
16g	.
16e-JJ)	.
=212	=212
4d	.
8r	.
16r	.
16g'<LL	.
16f#'<	.
16g'<	.
16b'<	.
16dd'<JJ	.
=213	=213
[>4.gg	.
8gg]	.
8r	.
8r	.
=214	=214
4r	.
8r	.
16r	.
16a-X'<LL>	.
16g'<	.
16a-'<	.
16ccn'<	.
16ee-X'<JJ	.
=215	=215
[>4.aa-X^<	.
8aa-]	.
8r	.
8r	.
!!LO:PB:g=original
=216	=216
4r	.
8r	.
16r	.
16an'<LL>	.
16g#X'<	.
16a'<	.
16cc#X'<	.
16ee'<JJ	.
=217	=217
[>4.aa	.
8aa]	.
8r	.
8r	.
=218	=218
4r	.
8r	.
16r	.
!	!LO:DY:rj
16b-XLL	p
16a	.
16b-	.
16a	.
16b-JJ	.
=219	=219
4.dd	f
16r	.
16b-XLL	p
16a	.
16b-	.
16a	.
16b-JJ	.
=220	=220
!	!LO:DY:rj
4.ee-X	f
16r	.
!	!LO:DY:rj
16b-XLL	p
16a	.
16b-	.
16a	.
16b-JJ	.
=221	=221
!	!LO:DY:rj
[>2.gg	p
.	<
!!LO:LB:g=original
=222	=222
2.gg]	.
=223	=223
(>[>2.ff#X	.
=224	=224
4.ff#_>	.
4ff#])	.
!	!LO:DY:rj
(>8ff#	ff
=225	=225
[>4.bb	.
4bb])	.
(>8aa#X	.
=226	=226
[>4.ccc#	.
4ccc#])	.
(>8bb	.
=227	=227
4eee	.
8ddd#X)	.
(>8ddd#L	.
8ccc#	.
8bbJ)	.
=228	=228
4.aa#X	.
[>4.gg#X	.
=229	=229
4gg#X]	.
8gg#	.
4aa#X	.
(>8bb\	.
=230	=230
[>4.b)	.
8bL]	.
8cc#	.
8dd#XJ	.
=231	=231
[>4.ee	.
8eeL]	.
8g#X	.
8a#XJ	.
!!LO:LB:g=original
=232	=232
8b	.
8r	.
8r	.
4r	.
8r	.
=233	=233
2.r	.
!LO:TX:a:B:t=1	!
.	.
.	.
=234	=234
(>2.cccn	pp
=235	=235
2.bb	.
=236	=236
4aa#X)	.
8r	.
4r	.
8r	.
=237	=237
2.r	.
!LO:TX:a:B:t=1	!
.	.
.	.
=238	=238
(>2.bb-X	.
=239	=239
2.aa	.
=240||	=240||
*k[f#c#g#]	*
!LO:TX:a:i:t=tempo 1|o.	!
8gg#)	.
8r	.
8r	.
4r	.
8r	.
=241	=241
2.r	.
!LO:TX:a:B:t=1	!
.	.
.	.
=242	=242
8r	.
8r	.
[>8ee	.
8ee]	.
8r	.
(>[>8ee	.
=243	=243
4ee]	.
4cccn)	.
8gg#L	.
8aaJ	.
!!LO:LB:g=original
=244	=244
8bb	.
8r	.
8r	.
4r	.
8r	.
=245	=245
2.r	.
!LO:TX:a:B:t=1	!
.	.
.	.
=246	=246
8r	.
8r	.
[>8ee	.
8ee]	.
8r	.
(>[>8ee	.
=247	=247
8eeL]	.
8eeeJ	.
4ddd)	.
8cccnL	.
8aaJ	.
=248	=248
8ee	.
8r	.
8r	.
4r	.
8r	.
=249	=249
2.r	.
!LO:TX:a:B:t=1	!
.	.
.	.
=250	=250
(>8eL	.
16f#L	.
16gn	.
16g#X	<
16aJJ	.
16a#XLL	.
16b	.
16ccn	.
16cc#X	.
16dd	.
16dd#XJJ)	.
.	[
!!LO:LB:g=original
=251	=251
(>16eeLL	.
16ffn	.
16ff#X	.
16ggn	.
16gg#X	.
16aaJJ	.
16aa#XLL	.
16bb	.
16cccn	.
16ccc#X	.
16ddd	.
16ddd#XJJ	.
=252	=252
8eee)	.
8r	.
4ee	f
8r	.
[>8ee^<	.
=253	=253
8ee]	.
8r	.
4ee^<	.
8r	.
[>8ee^<	.
=254	=254
8ee]	.
8r	.
(>8ee	.
4aa)	.
8gg#	.
=255	=255
4aa	.
(>8ee	.
4aa)	.
8gg#	.
=256	=256
4aa	.
(>8ee	.
4aa)	.
8gg#	.
=257	=257
(>8ff#'>L	.
8gg#'>	.
8aa'>J)	.
(>4.bb	.
!!LO:LB:g=original
=258	=258
8ee)	.
8r	.
(>8ee	<
.	[
4ddd)	.
8bb	.
=259	=259
!LO:TX:b:i:t=dol.	!
4aa#X	.
(>8ff#	.
4fff#	.
8eee)	.
=260	=260
(>8eeeL	.
8ddd)	.
8ccc#'>J	.
(>8ccc#L	.
8bb)	.
8aa'>J	.
=261	=261
4gg#	.
(>8gg#	.
8qbb/	.
8aaL)	.
8gg#	.
8aaJ	.
=262	=262
(>8bb	.
8r	.
!	!LO:DY:rj
8bb)	f
4eee	.
8r	.
=263	=263
4r	.
8bb	.
4fff#	.
8r	.
=264	=264
4r	.
!	!LO:DY:rj
(>8b	p
4ee)	.
8r	.
=265	=265
4r	.
(>8b	.
4ff#)	.
8r	.
!!LO:LB:g=original
=266	=266
(<16G#^>LL	.
16e)	.
(<16b	.
16eJ	.
8G#^>J)	.
(<16G#LL	.
16e)	.
(<16b	.
16eJ	.
8G#J)	.
=267	=267
(<16A#XLL	.
16f#)	.
(<16ee	.
16f#J	.
8A#J)	.
(<16A#LL	.
16f#)	.
(<16ee	.
16f#J	.
8A#J)	.
=268	=268
(<16BLL	.
16f#)	.
(<16dd#X	.
16f#J	.
8BJ)	.
(<16BLL	.
16f#)	.
(<16dd#	.
16f#J	.
8BJ)	.
=269	=269
(<16BLL	.
16an)	.
(<16dd#X	.
16aJ	.
8BJ)	.
(<16BLL	.
16a)	.
(<16dd#	.
16aJ	.
8BJ)	.
!!LO:LB:g=original
=270	=270
(<16BLL	.
16g#)	.
(<16ee	.
16g#J	.
8BJ)	.
(<16BLL	.
16g#)	.
(<16ee	.
16g#J	.
8BJ)	.
=271	=271
(<16c#LL	.
16f#)	.
(<16ee	.
16f#J	.
8c#J)	.
(<16c#LL	.
16f#)	.
(<16ee	.
16f#J	.
8c#J)	.
=272	=272
(<16BLL	.
16g#)	.
(<16ee	.
16g#J	.
8BJ)	.
(<16BLL	.
16e#X)	.
(<16ddn	.
16e#J	.
8BJ)	.
=273	=273
(<16BLL	.
16f#)	.
(<16dd#X	.
16f#J	.
8BJ)	.
(<16BLL	.
16a)	.
(<16dd#	.
16aJ	.
8BJ)	.
!!LO:LB:g=original
=274	=274
8e	.
8r	.
8r	.
4.ee	f
.	>
=275	=275
(>(>4.ee	.
4ccn)	.
8ddn)	]
=276	=276
8ee	.
8r	.
8r	.
(>[>4.ee	f>
=277	=277
4.ee]	]
4ccn	.
8dd)	.
=278	=278
4ee	.
8r	.
4ee	f
8r	.
=279	=279
4ee	>
8r	.
4ee	.
8r	.
=280	=280
!LO:TX:b:i:t=dol.	!
8ee	.
8r	.
(>8ee	.
4aa)	.
(>8gg#	.
=281	=281
4aa)	.
(>8ee	.
4aa)	.
(>8gg#	.
=282	=282
4aa)	.
(>8ee	.
4aa)	.
8gg#	.
!!LO:LB:g=original
=283	=283
(>8ff#'>L	.
8gg#'>	.
8aa'>J)	.
(>4.bb'>	.
=284	=284
!LO:N:vis=4	!
8ee)	.
8r	.
(>8ee	.
4ddd)	.
(>8bb	.
=285	=285
4aa#X)	.
(>8ff#^<	.
4fff#)	.
(>8eee	.
=286	=286
8eee#XL)	.
8ddd#X'>	.
[>8bbJ	.
8bbL]	.
8eee#	.
[>8dddnJ	.
=287	=287
!LO:TX:b:i:t=ri-tard-a\ tempo.:dur=11qe:ext=ud:problem:text with extention lines	!
8dddL]	.
8ccc#	.
(>[>8aaJ	.
8aaL]	.
8ddd	.
8ff#J)	.
=288	=288
2.aa	.
=289	=289
8aaL	.
8gg#	.
8ff#J	.
8qaa/	.
(<4.gg#	.
16qqff#/LL	.
16qqgg#/JJ)	.
=290	=290
8aa	.
8r	.
8r	.
4r	.
8r	.
!!LO:LB:g=original
=291	=291
2.r	.
=292	=292
2.r	.
=293	=293
4r	.
!LO:TX:a:i:t=pizz.	!
8r	.
4r	.
8a	.
=294	=294
8fn	.
8r	.
8r	.
4r	.
8a	.
=295	=295
8fn	.
8r	.
8r	.
4r	.
8A	.
=296	=296
8G#X	.
8r	.
8r	.
8e	p
8r	.
8r	.
=297	=297
8ee	.
8r	.
8r	.
8e/	.
8r	.
8r	.
=298	=298
8A/	.
8r	.
8r	.
4r	.
8r	.
=299	=299
2.r	.
=300	=300
2.r	.
=301	=301
4r	.
8r	.
!LO:TX:a:i:t=pizz.	!
4r	.
8a	f
=302	=302
8fn	.
8r	.
8r	.
4r	.
8a/	.
!!LO:LB:g=original
=303	=303
8fn	.
8r	.
8r	.
4r	.
8A	.
=304	=304
8G#X	.
8r	.
8r	.
8e	p
8r	.
8r	.
=305	=305
8ee	.
8r	.
8r	.
8e	.
8r	.
8r	.
=306	=306
8A	.
8r	.
8r	.
4r	.
8r	.
=307	=307
8A	.
8r	.
8r	.
8G#	.
8r	.
8r	.
=308	=308
8c#	.
8r	.
8r	.
4r	.
8r	.
=309	=309
8B	.
8r	.
8r	.
8A	.
8r	.
8r	.
=310	=310
8d	.
8r	.
8r	.
8c#	.
8r	.
8r	.
!!LO:LB:g=original
=311	=311
8d	.
8r	.
8r	.
!LO:TX:a:i:t=arco.	!
[<4.c#	.
=312	=312
2.c#_<	.
=313	=313
(<2.c#]	.
=314	=314
8cn)	.
8r	.
8r	.
(>\(<4.b-X 4.ggn\	pp
=315	=315
(>\4.a 4.ff#\))	.
4.a-X\ 4.ffn\	.
=316	=316
4.gn\ 4.ee\	.
4.g-X\ 4.ee-X\	.
=317	=317
4.fn\ 4.dd\	.
4.f#X\ 4.ccn\	.
=318	=318
8e\ 8cc#X\)	.
8r	.
8r	.
4r	.
8r	.
=319	=319
2.r	.
=320	=320
2.r	.
=321	=321
2.r	.
!!LO:PB:g=original
=322	=322
!LO:TX:b:t=P:łamanie strony tutaj:problem	!
!	!LO:DY:rj
8A'<L	f
(<16f#L	.
16e	.
16c#	.
16AJJ	.
8c#'<L)	.
(<16bL	.
16a	.
16e	.
16c#JJ	.
=323	=323
8e'<L)	.
(<16ddL	.
16cc#	.
16a	.
16eJJ	.
8a'>L)	.
(>16ff#L	.
16ee	.
16cc#	.
16aJJ	.
=324	=324
16bLL	.
16bb)	.
(>16a	.
16aa)	.
(>16g#	.
16gg#JJ)	.
(<16f#LL>	.
16ff#)	.
(<16e	.
16ee)	.
(<16d#X	.
16dd#XJJ)	.
!!LO:LB:g=original
=325	=325
(<32dnKLL	.
16.ddnJJ)	.
(>16bLL	.
16cc#	.
16dd	.
16bJJ	.
(<8f#L)	.
16eL	.
16d	.
16B	.
16c#JJ	.
=326	=326
8A^>L)	.
(<16f#L	.
16e	.
16c#	.
16AJJ	.
8c#^>L)	.
(<16bL	.
16a	.
16e	.
16c#JJ	.
=327	=327
8eL)^>	.
(<16ddL	.
16cc#	.
16a	.
16eJJ	.
8a^>L>)	.
(<16ff#L	.
16ee	.
16cc#	.
16aJJ	.
!!LO:LB:g=original
=328	=328
16bLL	.
!LO:TX:t=P:łuk kończy się nad nutami:problem	!
16bb)	.
16aa	.
(>16a	.
16g#)	.
(>16gg#JJ	.
16ff#LL<)	.
(>16f#	.
16e)	.
(>16ee	.
16dd#X)	.
(>16d#XJJ	.
=329	=329
8dnL>)	.
(<16ddnL	.
16cc#	.
16b	.
16aJJ	.
8g#L)	.
(<16cc#L	.
16b	.
16g#	.
16aJJ	.
=330	=330
8.f#L	.
16c#'<L)	.
16d#X'<	<
16e#X'<JJ	.
16f#'<LL	.
16g#'<	.
16a'<	.
16a#X'<	.
16b'<	.
16b#X'<JJ	[
!!LO:LB:g=original
=331	=331
!LO:TX:t=P:łuk zaczyna się przed nutami:problem	!
(>8.cc#L	.
16bnL	.
16dd)	.
[>16bJJ	.
16bLL]	.
(<16e#X	.
16g#)	.
(<16d	.
16c#)	.
16e#'<JJ	.
=332	=332
(<8.f#L	.
16c#L)	.
16d#X'<	<
16e#X'<JJ	.
16f#'<LL	.
16g#'<	.
16a'<	.
16a#X'<	.
16b'<	.
16b#X'<JJ	[
=333	=333
(<8.cc#L	.
16a#XL	.
16b	.
(<16g#JJ)	.
16anLL)	.
(<16b	.
16A)	.
(<16gn	.
16A)	.
16c#JJ	.
!!LO:LB:g=original
=334	=334
(<4d	.
16f#LL)	.
16gnJJ	.
16aLL>	.
16b	.
16cc#	.
16dd	.
16ee	.
16ff#JJ	.
=335	=335
(>8aaL	.
8ggnJ)	.
(>32ggKLL	.
16.eeJJ)	.
(>32eeKLL	.
16.cc#)	.
(>32cc#K	.
16.a)	.
(>32aK	.
16.gnJJ)	.
=336	=336
8f#'<L	.
8d'<	.
8f#^<J (>[>8a	.
16aLL>]	.
16b)	.
16cc#	<
16dd	.
16ee	.
16ff#JJ	.
.	[
!!LO:LB:g=original
=337	=337
(>8aaL	.
8ggnJ)	.
(>32ggKLL	.
16.ffnJJ)	.
(>32ffKLL	.
16.dd)	.
(>32ddK	.
16.b)	.
(>32bK	.
16.fnJJ)	.
=338	=338
8e'<L	.
8cn'<	.
[<8eJ [>8ccn	>
8eL>] 8cc]	]
(<(<16bL	.
16cc)	.
(<16cc	.
16eeJJ))	.
=339	=339
(>8eeL	.
8dd#XJ)	.
16dd#LL	.
16eeJJ	.
16ff#XLL	.
16gg#X	.
16aa	.
16bb	.
16ccc#X	.
16ddd#XJJ	.
!!LO:LB:g=original
=340	=340
8eee	.
8r	.
(<4e^>	.
4d#X	.
=341	=341
8dnL)	.
!LO:TX:b:i:t=dol.:rj	!
(<16cc#L	.
16b	.
16f#	.
16dJJ	.
8B'<L)	.
(<16aL	.
16g#	.
16e	.
16BJJ	.
=342	=342
8A'<L)	.
(<16f#L	.
16e	.
16c#	.
16AJJ	.
8c#'<L)	.
(<16bL	.
16a	.
16e	.
16c#JJ	.
=343	=343
8d'<L)	.
(<16cc#L	.
16b	.
16f#	.
16dJJ	.
8B'<L)	.
!LO:TX:t=P:brak zakończenia łuku:problem	!
(16aL	.
16g#	.
16d	.
16BJJ	.
!!LO:LB:g=original
=344	=344
8A'<L)	.
(<16f#L	.
16e	.
16c#	.
16AJJ	.
8c#'<L)	.
(<16bL	.
16a	.
16e	.
16c#JJ	.
=345	=345
8d'<L)	.
(<16cc#L	.
16b	.
16f#	.
16dJJ	.
8d#X'<L)	.
(<16cc#L	.
16b	.
16f#	.
16d#JJ	.
=346	=346
16eLL	.
16ee	.
16fn	.
16ffn)	.
(<16e	p
16eeJJ)	.
(<16d#XLL	.
16dd#X)	.
(<16e	.
16ee)	.
(<16d#	.
16dd#JJ)	.
!!LO:LB:g=original
=347	=347
(<16eLL	.
16ee)	.
(<16fn	.
16ffn)	.
(<16e	.
16eeJJ)	.
(<16d#XLL	.
16dd#X)	.
(<16e	.
16ee)	.
(<16d#	.
16dd#JJ)	.
=348	=348
(<16eLL	.
16ee)	.
(<16fn	.
16ffn)	.
(<16e	.
16eeJJ)	.
(<16fLL>	.
16ff)	.
(<16e	.
16ee)	.
(<16f	.
16ffJJ)	.
=349	=349
(<16eLL	.
16ee)	.
(<16f#X	<
16ff#X)	.
(<16e	.
16eeJJ)	.
(<16f#LL>	.
16ff#)	.
(<16e	.
16ee)	.
(<16f#	.
16ff#JJ)	.
!!LO:LB:g=original
=350	=350
(<16eLL>	.
16ee)	.
(<16g#	.
16gg#)	.
(<16a	.
16aaJJ)	.
(>16bLL<	.
16bb)	.
(>16cc#	.
16ccc#)	.
(>16dd#X	.
16ddd#XJJ)	.
=351	=351
8qee/	.
!	!LO:DY:rj
8eee	f
8r	.
8r	.
8e/ 8b/ 8gg#/	.
8r	.
8r	.
=352	=352
8A	.
8r	.
(>8ee	f
4aa)	.
(>8gg#	.
=353	=353
4aa)	.
(>8ee#X	.
4aa)	.
(>8ee#	.
=354	=354
4aa)	.
(>8ff#	.
4aa)	.
8gg#	.
!!LO:LB:g=original
=355	=355
(>8ff#'>L	.
8gg#'>	.
8aa'>J)	.
(>4.bb	f
=356	=356
8aa)	.
8r	.
(>8ee	.
4aa)	.
(>8gg#	.
=357	=357
4aa)	.
(>8ee#X	.
4aa)	.
(>8gg#	.
=358	=358
4aa)	.
(>8ff#	.
4aa)	.
8gg#	.
=359	=359
(>8ff#'>L	.
8gg#'>	.
8aa'>J)	.
!	!LO:DY:rj
(>4.bb	f
!!LO:LB:g=original
=360	=360
4.eee)	.
[>4.eee^<	.
=361	=361
4.eee]	.
[>4.eee^<	.
=362	=362
8eeeL]	.
(>16eeeL	.
16ccc#	.
16ee	.
16cc#JJ	.
8dd'>^<L)	.
(>16eeL	.
16gg#	.
16bb	.
16eeeJJ	.
=363	=363
8eeeL)	.
(>16cc#L	.
16ee	.
16aa	.
16ccc#JJ	.
8eeeL)	.
(>16eeL	.
16gg#	.
16bb	.
16eeeJJ)	.
!!LO:LB:g=original
=364	=364
4.a	.
!	!LO:DY:rj
[>4.aa	f
=365	=365
8aaL]	.
8ee	.
8aaJ	.
8ccc#L	.
8eee	.
8ccc#J	.
=366	=366
8aaa	.
8r	.
8r	.
8A/ 8e/ 8cc#/ 8aa/	.
8r	.
8r	.
=367	=367
8A/ 8e/ 8cc#/	.
8r	.
8r	.
8A/ 8e/ 8cc#/ 8aa/	.
8r	.
8r	.
=368	=368
2.A;>	.
==	==
*-	*-
!!title: @{OTL}; @{OPS} @{ONM} publisher: @{PPR}
!!!system-decoration: s1{(s2,s3)}
!!!RDF**kern: > = above
!!!RDF**kern: < = below
!!!RDF**dynam: < = "cres",fontstyle="italic"
!!!RDF**dynam: > = "dim.",fontstyle="italic"
!!!RDF**kern: N = linked
!!!ENC: Mateusz Mrugas
!!!END: 2020-03-28
!!!EED: Jędrzej Mróz
!!!EST: revision finished 2020-04-01
